modules/hawcons-stroke/icons/cloud-sun-fog.svg

<?xml version="1.0" encoding="UTF-8" standalone="no"?>
<svg width="32px" height="32px" viewBox="0 0 32 32" version="1.1" xmlns="http://www.w3.org/2000/svg" xmlns:xlink="http://www.w3.org/1999/xlink" xmlns:sketch="http://www.bohemiancoding.com/sketch/ns">
    <!-- Generator: Sketch 3.0.3 (7891) - http://www.bohemiancoding.com/sketch -->
    <title>icon 25  cloud sun fog</title>
    <desc>Created with Sketch.</desc>
    <defs></defs>
    <g id="Page-1" stroke="none" stroke-width="1" fill="none" fill-rule="evenodd" sketch:type="MSPage">
        <g id="icon-25--cloud-sun-fog" sketch:type="MSArtboardGroup" fill="#929292">
            <path d="M29.9855541,23.3822489 C29.9951266,23.2560638 30,23.1285889 30,23 C30,20.9483386 28.7676457,19.1852931 26.9993494,18.4145295 C26.9735292,16.7196655 26.1810757,15.2107183 24.9534131,14.2191122 L24.9534131,14.2191122 C24.984146,13.983761 25,13.7437319 25,13.5 C25,10.4624337 22.5375663,8 19.5,8 C17.2971895,8 15.3968409,9.29499266 14.5187269,11.1652053 L14.5187269,11.1652053 C14.0297369,11.0570341 13.521529,11 13,11 C9.36143327,11 6.37126467,13.7761208 6.03204832,17.3258084 L6.03204832,17.3258084 C6.01133839,17.380508 6,17.4393285 6,17.5 C6,17.5358751 6.00379095,17.5708677 6.01097937,17.6046017 C6.00369217,17.735474 6,17.8673058 6,18 C6,18.1381509 6.00400207,18.275367 6.01189661,18.4115388 C4.23965876,19.1816085 3,20.9491311 3,23 C3,23.128596 3.00484149,23.256058 3.01435298,23.382213 C3.00497542,23.4202151 3,23.4596992 3,23.5 C3,23.5777899 3.01852303,23.6514307 3.05090665,23.7170869 C3.39785142,26.1387884 5.47646707,28 7.99943992,28 L25.0005601,28 C27.5169034,28 29.5990391,26.1360614 29.9484241,23.7196325 C29.9814301,23.652668 30,23.577858 30,23.5 C30,23.4594404 29.9949644,23.4200088 29.9855541,23.3822489 L29.9855541,23.3822489 Z M4,23 C4,22.6548633 4.04392109,22.3197573 4.12649336,22 L4.12649336,22 L28.8735341,22 C28.9560741,22.3196199 29,22.6547004 29,23 L4,23 L4,23 Z M4.12646589,24 C4.21808339,24.3547709 4.35727535,24.6904936 4.53677755,25 L4.53677755,25 L28.4633372,25 C28.6428094,24.6903822 28.7819289,24.3546307 28.8735066,24 L4.12646589,24 L4.12646589,24 Z M8.52778687,14 C8.25337543,14.3065967 8.01002833,14.6415792 7.80269309,15 L7.80269309,15 L18.1973069,15 C17.9899717,14.6415792 17.7466246,14.3065967 17.4722131,14 L8.52778687,14 L8.52778687,14 L8.52778687,14 Z M9.68220474,13 C10.632511,12.3681527 11.7732622,12 13,12 C14.2267378,12 15.367489,12.3681527 16.3177953,13 L9.68220474,13 L9.68220474,13 L9.68220474,13 Z M7.3501465,15.9754571 C7.23218227,16.304618 7.14216624,16.6470856 7.08295843,17 L7.08295843,17 L25.7439415,17 C25.6181033,16.643971 25.4487328,16.3085058 25.2422256,16 L7.5082041,16 C7.45297145,16 7.39985382,15.9913874 7.3501465,15.9754571 L7.3501465,15.9754571 L7.3501465,15.9754571 Z M18.6713327,15 C19.4441958,14.3746001 20.4283516,14 21.5,14 C22.5716484,14 23.5558042,14.3746001 24.3286673,15 L18.6713327,15 L18.6713327,15 L18.6713327,15 Z M7,18 C7,18.3407122 7.02839879,18.6747915 7.08295843,19 L7.08295838,19 L25.9725356,19 C25.9906833,18.8358331 26,18.6690046 26,18.5 C26,18.3309955 25.9906833,18.1641669 25.9725356,18 L7,18 L7,18 L7,18 Z M5.37541421,19.9837499 C5.04304943,20.2732379 4.75891475,20.6165803 4.53666277,21 L4.53666277,21 L28.4632224,21 C28.2407558,20.6164123 27.9563729,20.2730926 27.623902,19.9836863 C27.5837366,19.9943114 27.541623,20 27.4982224,20 L5.5017776,20 C5.45824191,20 5.41587894,19.9943542 5.37541421,19.9837499 L5.37541421,19.9837499 L5.37541421,19.9837499 Z M5.3574725,26 C6.06364763,26.6223634 6.99032661,27 8.00281647,27 L24.9971835,27 C26.0115087,27 26.9377152,26.6220385 27.6431279,26 L5.3574725,26 L5.3574725,26 L5.3574725,26 Z M23.998929,13.5991622 C23.9996418,13.5661942 24,13.533139 24,13.5 C24,11.0147185 21.9852815,9 19.5,9 C17.7507549,9 16.2346236,9.99807813 15.4900199,11.4558205 C16.7434413,11.9330105 17.8243683,12.7599569 18.6135384,13.8173973 C19.4525719,13.299097 20.441357,13 21.5,13 C22.399795,13 23.2491234,13.2160728 23.998929,13.5991622 L23.998929,13.5991622 L23.998929,13.5991622 Z M19.5,4 C19.2238576,4 19,4.2157526 19,4.49538898 L19,6.50461102 C19,6.7782068 19.2319336,7 19.5,7 C19.7761424,7 20,6.7842474 20,6.50461102 L20,4.49538898 C20,4.2217932 19.7680664,4 19.5,4 L19.5,4 Z M26.2330514,6.78892122 C26.0377893,6.59365907 25.7269379,6.58792796 25.5292051,6.78566074 L24.1084706,8.20639526 C23.9150092,8.3998567 23.9221795,8.72068999 24.1117311,8.91024156 C24.3069932,9.10550371 24.6178446,9.11123483 24.8155774,8.91350204 L26.2363119,7.49276752 C26.4297733,7.29930609 26.422603,6.97847279 26.2330514,6.78892122 L26.2330514,6.78892122 Z M29.0219727,13.5219727 C29.0219727,13.2458303 28.8062201,13.0219727 28.5265837,13.0219727 L26.5173616,13.0219727 C26.2437659,13.0219727 26.0219727,13.2539062 26.0219727,13.5219727 C26.0219727,13.798115 26.2377253,14.0219727 26.5173616,14.0219727 L28.5265837,14.0219727 C28.8001795,14.0219727 29.0219727,13.7900391 29.0219727,13.5219727 L29.0219727,13.5219727 Z M12.7669486,6.78892122 C12.5716864,6.98418337 12.5659553,7.29503474 12.7636881,7.49276752 L14.1844226,8.91350204 C14.377884,9.10696348 14.6987173,9.09979314 14.8882689,8.91024156 C15.0835311,8.71497942 15.0892622,8.40412805 14.8915294,8.20639526 L13.4707949,6.78566074 C13.2773334,6.59219931 12.9565001,6.59936965 12.7669486,6.78892122 L12.7669486,6.78892122 Z" id="cloud-sun-fog" sketch:type="MSShapeGroup"></path>
        </g>
    </g>
</svg>

<svg width="32" height="32" viewBox="0 0 32 32" xmlns="http://www.w3.org/2000/svg"><path d="M29.986 23.382A4.998 4.998 0 0 0 27 18.414a5.49 5.49 0 0 0-2.047-4.195 5.5 5.5 0 0 0-10.435-3.054 7 7 0 0 0-8.487 6.16h.001a.492.492 0 0 0-.021.28 7.112 7.112 0 0 0 0 .807 5.006 5.006 0 0 0-2.997 4.97.491.491 0 0 0 .037.335A4.996 4.996 0 0 0 7.999 28h17.002a5.005 5.005 0 0 0 4.947-4.28.496.496 0 0 0 .038-.338zM4 23c0-.345.044-.68.126-1h24.748c.082.32.126.655.126 1H4zm.126 1c.092.355.231.69.41 1h23.927c.18-.31.319-.645.41-1H4.127zm4.402-10a6.019 6.019 0 0 0-.725 1h10.394a6.019 6.019 0 0 0-.725-1H8.528zm1.154-1c.95-.632 2.091-1 3.318-1 1.227 0 2.367.368 3.318 1H9.682zM7.35 15.975c-.118.33-.208.672-.267 1.025h18.66a4.484 4.484 0 0 0-.5-1H7.507a.517.517 0 0 1-.158-.025zM18.671 15c.773-.625 1.757-1 2.829-1 1.072 0 2.056.375 2.829 1H18.67zM7 18c0 .34.028.675.083 1h18.89a4.55 4.55 0 0 0 0-1H7zm-1.625 1.984c-.332.29-.616.633-.838 1.016h23.926a4.027 4.027 0 0 0-.84-1.016.49.49 0 0 1-.125.016H5.502a.498.498 0 0 1-.127-.016zM5.357 26a3.99 3.99 0 0 0 2.646 1h16.994c1.015 0 1.94-.378 2.646-1H5.357zM24 13.6l.001-.1a4.5 4.5 0 0 0-8.51-2.044 7.02 7.02 0 0 1 3.124 2.361A5.474 5.474 0 0 1 21.5 13c.9 0 1.75.216 2.499.6zM19.5 4c-.276 0-.5.216-.5.495v2.01c0 .273.232.495.5.495.276 0 .5-.216.5-.495v-2.01A.503.503 0 0 0 19.5 4zm6.733 2.789a.494.494 0 0 0-.704-.003l-1.42 1.42a.503.503 0 0 0 .003.704.494.494 0 0 0 .704.004l1.42-1.421a.503.503 0 0 0-.003-.704zm2.789 6.733c0-.276-.216-.5-.495-.5h-2.01a.503.503 0 0 0-.495.5c0 .276.216.5.495.5h2.01a.503.503 0 0 0 .495-.5zM12.767 6.789a.494.494 0 0 0-.003.704l1.42 1.42a.503.503 0 0 0 .704-.003.494.494 0 0 0 .004-.704l-1.421-1.42a.503.503 0 0 0-.704.003z" fill="#929292" fill-rule="evenodd"/></svg>
